X: 1
T: Middling, Thank You
R: jig
M: 6/8
L: 1/8
K: G
e \
| "G"dcB d2B | d2B "C"gfe | "G"dcB d2B | "Am"c2A "D7"FED \
| "G"dcB d2B | d2B "C"gfe | "G"dcB "Am"c2A | "D7"FEF "G"G2 :|
|: g \
| "Em"gag "B7"fg2 | "C"efe "G"dBG | "C"gag "A7"f2g | "D7"afd "G"g3 \
| "Em"gag "B7"fg2 | "C"efe "G"dBG | "Am"ABA "A7"e2e | "D7"dcA "G"G2 :|
